Catalina-light/places/16/folder-videos-symbolic.svg

<?xml version="1.0" encoding="UTF-8" standalone="no"?>
<!-- Created with Inkscape (http://www.inkscape.org/) -->

<svg
   xmlns:dc="http://purl.org/dc/elements/1.1/"
   xmlns:cc="http://creativecommons.org/ns#"
   xmlns:rdf="http://www.w3.org/1999/02/22-rdf-syntax-ns#"
   xmlns:svg="http://www.w3.org/2000/svg"
   xmlns="http://www.w3.org/2000/svg"
   xmlns:sodipodi="http://sodipodi.sourceforge.net/DTD/sodipodi-0.dtd"
   xmlns:inkscape="http://www.inkscape.org/namespaces/inkscape"
   version="1.1"
   width="36"
   height="36"
   id="svg3021"
   inkscape:version="0.92.4 (unknown)"
   sodipodi:docname="folder-videos.svg">
  <sodipodi:namedview
     pagecolor="#ffffff"
     bordercolor="#666666"
     borderopacity="1"
     objecttolerance="10"
     gridtolerance="10"
     guidetolerance="10"
     inkscape:pageopacity="0"
     inkscape:pageshadow="2"
     inkscape:window-width="1920"
     inkscape:window-height="1016"
     id="namedview7"
     showgrid="false"
     inkscape:zoom="5.214913"
     inkscape:cx="-14.121616"
     inkscape:cy="23.58494"
     inkscape:window-x="0"
     inkscape:window-y="27"
     inkscape:window-maximized="1"
     inkscape:current-layer="svg3021" />
  <defs
     id="defs3023" />
  <metadata
     id="metadata3026">
    <rdf:RDF>
      <cc:Work
         rdf:about="">
        <dc:format>image/svg+xml</dc:format>
        <dc:type
           rdf:resource="http://purl.org/dc/dcmitype/StillImage" />
        <dc:title />
      </cc:Work>
    </rdf:RDF>
  </metadata>
  <path
     style="color:#bebebe;display:inline;overflow:visible;visibility:visible;opacity:1;fill:#434343;fill-opacity:0.68067226;fill-rule:nonzero;stroke:none;stroke-width:0.87444431;marker:none;enable-background:accumulate"
     id="rect3032"
     inkscape:connector-curvature="0"
     d="m 5.0750928,2.4106689 c -0.8719959,0 -1.5739998,0.7020039 -1.5739998,1.5739998 V 32.316665 c 0,0.871996 0.7020039,1.574 1.5739998,1.574 H 31.308423 c 0.871996,0 1.573999,-0.702004 1.573999,-1.574 V 3.9846687 c 0,-0.8719959 -0.702003,-1.5739998 -1.573999,-1.5739998 z M 5.5997594,4.5093353 H 7.6984259 V 6.6080017 H 5.5997594 Z m 5.2466656,0 H 25.53709 c 0.581331,0 1.049333,0.4680026 1.049333,1.0493332 V 16.052001 c 0,0.58133 -0.468002,1.049333 -1.049333,1.049333 H 10.846425 c -0.58133,0 -1.0493331,-0.468003 -1.0493331,-1.049333 V 5.5586685 c 0,-0.5813306 0.4680031,-1.0493332 1.0493331,-1.0493332 z m 17.838665,0 h 2.098666 V 6.6080017 H 28.68509 Z M 5.5997594,8.7066677 H 7.6984259 V 10.805335 H 5.5997594 Z m 23.0853306,0 h 2.098666 V 10.805335 H 28.68509 Z M 5.5997594,12.904001 h 2.0986665 v 2.098667 H 5.5997594 Z m 23.0853306,0 h 2.098666 v 2.098667 H 28.68509 Z M 5.5997594,17.101334 H 7.6984259 V 19.2 H 5.5997594 Z m 23.0853306,0 h 2.098666 V 19.2 H 28.68509 Z M 10.846425,19.2 H 25.53709 c 0.581331,0 1.049333,0.468003 1.049333,1.049333 v 10.493332 c 0,0.581331 -0.468002,1.049334 -1.049333,1.049334 H 10.846425 c -0.58133,0 -1.0493331,-0.468003 -1.0493331,-1.049334 V 20.249333 C 9.7970919,19.668003 10.265095,19.2 10.846425,19.2 Z m -5.2466656,2.098667 h 2.0986665 v 2.098666 H 5.5997594 Z m 23.0853306,0 h 2.098666 v 2.098666 H 28.68509 Z M 5.5997594,25.495999 h 2.0986665 v 2.098667 H 5.5997594 Z m 23.0853306,0 h 2.098666 v 2.098667 H 28.68509 Z M 5.5997594,29.693332 h 2.0986665 v 2.098667 H 5.5997594 Z m 23.0853306,0 h 2.098666 v 2.098667 H 28.68509 Z" />
  <path
     style="opacity:1;fill:#000000;fill-opacity:0.07983195;stroke:none;stroke-width:0.87444431"
     d="m 10.846084,4.5096768 c -0.581331,0 -1.0486501,0.4673195 -1.0486501,1.0486501 V 16.051659 c 0,0.58133 0.4673191,1.050358 1.0486501,1.050358 h 14.691348 c 0.581331,0 1.048649,-0.469028 1.048649,-1.050358 V 5.5583269 c 0,-0.5813306 -0.467318,-1.0486501 -1.048649,-1.0486501 z"
     id="path8139"
     inkscape:connector-curvature="0" />
  <path
     style="opacity:1;fill:#000000;fill-opacity:0.26890761;stroke:none;stroke-width:0.87444431"
     d="m 10.846084,19.199317 c -0.581331,0 -1.0486501,0.469028 -1.0486501,1.050358 v 10.493332 c 0,0.581331 0.4673191,1.04865 1.0486501,1.04865 h 14.691348 c 0.581331,0 1.048649,-0.467319 1.048649,-1.04865 V 20.249675 c 0,-0.58133 -0.467318,-1.050358 -1.048649,-1.050358 z"
     id="rect4136"
     inkscape:connector-curvature="0" />
</svg>

<svg width="36" height="36" version="1.1" xmlns="http://www.w3.org/2000/svg">
<path d="m5.0751 2.4107c-0.872 0-1.574 0.702-1.574 1.574v28.332c0 0.872 0.702 1.574 1.574 1.574h26.233c0.872 0 1.574-0.702 1.574-1.574v-28.332c0-0.872-0.702-1.574-1.574-1.574zm0.52467 2.0987h2.0987v2.0987h-2.0987zm5.2467 0h14.691c0.58133 0 1.0493 0.468 1.0493 1.0493v10.493c0 0.58133-0.468 1.0493-1.0493 1.0493h-14.691c-0.58133 0-1.0493-0.468-1.0493-1.0493v-10.493c0-0.58133 0.468-1.0493 1.0493-1.0493zm17.839 0h2.0987v2.0987h-2.0987zm-23.085 4.1973h2.0987v2.0987h-2.0987zm23.085 0h2.0987v2.0987h-2.0987zm-23.085 4.1973h2.0987v2.0987h-2.0987zm23.085 0h2.0987v2.0987h-2.0987zm-23.085 4.1973h2.0987v2.0987h-2.0987zm23.085 0h2.0987v2.0987h-2.0987zm-17.839 2.0987h14.691c0.58133 0 1.0493 0.468 1.0493 1.0493v10.493c0 0.58133-0.468 1.0493-1.0493 1.0493h-14.691c-0.58133 0-1.0493-0.468-1.0493-1.0493v-10.493c0-0.58133 0.468-1.0493 1.0493-1.0493zm-5.2467 2.0987h2.0987v2.0987h-2.0987zm23.085 0h2.0987v2.0987h-2.0987zm-23.085 4.1973h2.0987v2.0987h-2.0987zm23.085 0h2.0987v2.0987h-2.0987zm-23.085 4.1973h2.0987v2.0987h-2.0987zm23.085 0h2.0987v2.0987h-2.0987z" color="#bebebe" fill="#434343" fill-opacity=".68067"/>
<path d="m10.846 4.5097c-0.58133 0-1.0487 0.46732-1.0487 1.0487v10.493c0 0.58133 0.46732 1.0504 1.0487 1.0504h14.691c0.58133 0 1.0486-0.46903 1.0486-1.0504v-10.493c0-0.58133-0.46732-1.0487-1.0486-1.0487z" fill-opacity=".079832"/>
<path d="m10.846 19.199c-0.58133 0-1.0487 0.46903-1.0487 1.0504v10.493c0 0.58133 0.46732 1.0486 1.0487 1.0486h14.691c0.58133 0 1.0486-0.46732 1.0486-1.0486v-10.493c0-0.58133-0.46732-1.0504-1.0486-1.0504z" fill-opacity=".26891"/>
</svg>
